'  Programma:Mike:logo-work/Joystick.LOGO
'   per LOGO v1.0 by Michele Berionne

prFire to change colour    Fire+up: pen up    Fire+down: pen down 
wait 6
pr
cycle
#j=$j
if #j=1 then forward 2
if #j=2 then back 2
if #j=4 then left 5
if #j=8 then right 5
if #j=16
#c=$c+1
if #c>7 then #c=2
colour #c
wait 1
stop
if #j=17 then penup
if #j=18 then pendown
close



