'  >>Scrivi il programma LOGO<<
'   [ESC+q per uscire]

angle 60
cycle
colour $1
#a=$1*8
forward #a
right 120;forward #a
right 120;forward #a
forward #a
left 120
forward#a;left 120
forward #a
close  7




